X:149
T: O THAELER WEIT O HOEHEN
N: B0178
O: Europa, Mitteleuropa, Deutschland
R: Natur - Lied, Wald
M: 4/4
L: 1/16
K: Eb
B4 | G4E4D6E2 | G8F4
E4 | A4G4c6c2 | B8z4
B4 | e4B4A6G2 | G8F4
c4 | c4F4A6D2 | E8z4
G4 | G6F2F4F4 | A8G8
B4B3BB4B4 | =A12
d4 | e4B4A4G4 | G8F4
c4 | c6F2G4A4 | G8z4
B4 | B4e4g6f2 | e4d4c4=B4 | c4z4
F4z4 | A12D4 | E8z4

